X: 190
%
U:~=!turn!
T: Francis Sitwell
C:Nath. Gow
O:Scotland
B:Keith Norman MacDonald : "The Skye collection of the best reels & strathspeys extant" : 1887
Z:Ralph Palmer
R:Strathspey
M:C
L:1/8
K:Bb
B | F>BD>B {/^F}G2 (E>G) | F>f (e/d/)(c/B/) (A<c) (Tcd/e/) | d>BF>D {/^F}G2 (E>G) | F>B (A/B/c) (d<B)B :: g | f>dg>e Tf2 (d>g) |
f>d (e/d/)(c/B/) A<c (Tcd/e/) | [1 f>dg>d f>db>d | (e/d/)(c/B/) F>c d<BB :| [2 Tf>dB>F {/^F}G2 (E>G) | F>B (A/B/c) (d<B) ~B |]


